build/bank/CreditMoskowBank.svg

<svg xmlns="http://www.w3.org/2000/svg" fill="none" viewBox="0 0 40 40" focusable="false"><path d="M0 0H40V40H0z"/><path fill="#BB0032" d="M1 12.4C1 10.1598 1 9.03969 1.43597 8.18404C1.81947 7.43139 2.43139 6.81947 3.18404 6.43597C4.03969 6 5.15979 6 7.4 6L32.6 6C34.8402 6 35.9603 6 36.816 6.43597C37.5686 6.81947 38.1805 7.43139 38.564 8.18404C39 9.03969 39 10.1598 39 12.4L39 27.6C39 29.8402 39 30.9603 38.564 31.816C38.1805 32.5686 37.5686 33.1805 36.816 33.564C35.9603 34 34.8402 34 32.6 34L7.4 34C5.15979 34 4.03969 34 3.18404 33.564C2.43139 33.1805 1.81947 32.5686 1.43597 31.816C1 30.9603 1 29.8402 1 27.6L1 12.4Z"/><path fill="#FFF" fill-rule="evenodd" d="M16.6531 21.3028L21.4501 16.5088L29.9372 16.5088L26.5412 19.9091L22.8554 19.9091L16.7056 26.107L9.5 18.9043L11.8562 16.5L16.6575 16.5044L14.2562 18.9057L16.6531 21.3028ZM18.3788 25.3235L17.6929 26.0065L22.5131 26.0065L24.5358 23.975L26.5397 23.975L29.9401 20.579L23.1233 20.579L18.3788 25.3235Z"/></svg>

<svg xmlns="http://www.w3.org/2000/svg" fill="none" viewBox="0 0 40 40" focusable="false"><path fill="none" d="M0 0h40v40H0z"/><path fill="#BB0032" d="M1 12.4c0-2.25 0-3.37.43-4.22a4 4 0 0 1 1.75-1.75C4.03 6 5.15 6 7.4 6h25.19c2.25 0 3.37 0 4.22.43a4 4 0 0 1 1.75 1.75c.44.85.44 1.97.44 4.22v15.2c0 2.24 0 3.36-.44 4.21a4 4 0 0 1-1.75 1.75c-.85.44-1.97.44-4.22.44H7.4c-2.25 0-3.37 0-4.22-.44a4 4 0 0 1-1.75-1.75C1 30.96 1 29.84 1 27.6z"/><path fill="#FFF" fill-rule="evenodd" d="m16.65 21.3 4.8-4.8h8.48l-3.39 3.4h-3.69l-6.15 6.2-7.2-7.2 2.35-2.4h4.8l-2.4 2.4zm1.72 4.02-.68.68h4.82l2.02-2.03h2l3.41-3.4h-6.82z"/></svg>
